X: 13
T: RUSS TAYLOR
C: Andrew Rankine 1980
R: reel
B: "The Complete Andrew Rankine Collection of Scottish Country Dance Tunes" p.16
Z: 2017 John Chambers <jc:trillian.mit.edu>
M: C
L: 1/8
K: D
FG |\
"D"A2FA BAFA | "Bm"d2cd "A7"BAFG | "D"A2FA "B7"BAFA | "Em"e2^de "A7"cAGE |
"D"A2FA "D7"BAFA | "G"d2cd "D"BAFA | "Em"B2GB "D"A2FA | "A7"GA,B,C "D"D2 :|
|: E2 |\
"D"FA,DF "D7"ADFA | "G"B2GB "D"AA,DE | FA,DF ADFA | "Em"e2^de "A7"cAGE |
"D"FA,DF "D7"ADFA | "G"B2GB "D"ADFA | "Em"B2GB "D"A2FA | "A7"GA,B,C "D"D2 :

%%sep 1 1 500

